X: 1
T: THE "BOSS" -- JIG
B: Ryan's Mammoth Collection of Fiddle Tunes
R: jig
M: 6/8
L: 1/8
Z: Contributed 20000831205740 by John Chambers John.Chambers:weema.com
K: Bb
("fz"{vfga}kb2.B) {c}BAB | GBB FBB | ("fz"vkb2.B) {c}BAB | GcB AGF \
| ("fz"vkb2.B) {c}BAB | GBB FBB | GBB Acc | dBB B2z :|
|: vdff fdB | dff fdB | dff fdB | ecc c2z \
| vdff fdB | dff fdB | bag fed | cdB AGF "D.C."[|]:|
